Origami/64x64/apps/dconf-editor.svg

<svg width="64" height="64" version="1" xmlns="http://www.w3.org/2000/svg">
 <path d="m27.94499 5.0000024c-13.129913 4e-7 -23.94499 10.829398-23.94499 23.976693 4e-7 13.147298 10.815077 23.976696 23.94499 23.976696 2.502786 5.16e-4 4.958502-0.427792 7.315226-1.186348l5.795278 5.799052c2.096336 2.18625 5.432252 3.575278 8.425956 3.422452 2.993702-0.15284 5.4501-1.4612 7.24897-3.262452 1.798872-1.801254 3.105518-4.260902 3.258142-7.25857 0.15262-2.997668-1.23457-6.338-3.41793-8.437112l0.1169 0.11318-5.943376-5.95515c0.73442-2.320722 1.142794-4.73934 1.145812-7.20003v-0.0116c0-13.147295-10.815076-23.976692-23.944988-23.976692z" style="opacity:.2"/>
 <path d="m27.94499 4.0000008c-13.129913 4e-7 -23.94499 10.829397-23.94499 23.976693 4e-7 13.147298 10.815077 23.976696 23.94499 23.976696 2.502786 5.16e-4 4.958502-0.427792 7.315226-1.186348l5.795278 5.799052c2.096336 2.18625 5.432252 3.575278 8.425956 3.422452 2.993702-0.15284 5.4501-1.4612 7.24897-3.262452 1.798872-1.801254 3.105518-4.260902 3.258142-7.25857 0.15262-2.997668-1.23457-6.338-3.41793-8.437112l0.1169 0.11318-5.943376-5.95515c0.73442-2.320722 1.142794-4.73934 1.145812-7.20003v-0.0116c0-13.147296-10.815076-23.976693-23.944988-23.976693z" style="fill:#d74f44"/>
 <path d="m34.683832 39.851771 12.225892 12.225892c2.827528 2.944906 7.187094-1.41466 4.242188-4.242188l-12.41165-12.41165c-4.740262 1.576176-2.740262 1.576176-4.05643 4.427946z" style="opacity:.2"/>
 <path d="m 34.683832,38.85177 12.225892,12.225892 c 2.827528,2.944906 7.187094,-1.41466 4.242188,-4.242188 L 38.740262,34.423824 C 34,36 36,36 34.683832,38.85177 Z" style="fill:#565656"/>
 <path d="m28 13.000002a16 16 0 0 0 -16 15.999999 16 16 0 0 0 16 16 16 16 0 0 0 16 -16 16 16 0 0 0 -16 -15.999999zm0 5.999999a9.9999992 9.9999992 0 0 1 10 10 9.9999992 9.9999992 0 0 1 -10 10 9.9999992 9.9999992 0 0 1 -10 -10 9.9999992 9.9999992 0 0 1 10 -10z" style="opacity:.2"/>
 <path d="m28 12a16 16 0 0 0 -16 16 16 16 0 0 0 16 16 16 16 0 0 0 16 -16 16 16 0 0 0 -16 -16zm0 6a9.9999992 9.9999992 0 0 1 10 10 9.9999992 9.9999992 0 0 1 -10 10 9.9999992 9.9999992 0 0 1 -10 -10 9.9999992 9.9999992 0 0 1 10 -10z" style="fill:#ffffff"/>
 <path d="m27.945312 4c-13.129911 4e-7 -23.945312 10.829266-23.945312 23.976562 0 0.112598 0.0115992 0.222712 0.0175781 0.333985 0.3589751-12.843973 11.020978-23.310547 23.927734-23.310547 12.921815 4e-7 23.594388 10.49104 23.929688 23.355469 0.005065-0.1224 0.015469-0.244154 0.015625-0.367188v-0.011719c-6e-6 -13.147214-10.8154-23.976562-23.945313-23.976562zm23.234376 31.625c-0.13012 0.524734-0.270402 1.04682-0.433594 1.5625l0.216797 0.216797c0.071548-0.259974 0.151888-0.517539 0.216797-0.779297l5.507812 5.519531-0.117188-0.113281c1.969054 1.893075 3.277737 4.794522 3.40625 7.544922 0.003043-0.036107 0.009854-0.070717 0.011719-0.107422 0.15262-2.997668-1.234609-6.338388-3.417969-8.4375l0.117188 0.113281-5.507812-5.519531z" style="fill:#ffffff;opacity:.1"/>
</svg>

<svg xmlns="http://www.w3.org/2000/svg" width="64" height="64" version="1">
 <path style="opacity:0.2" d="M 27.94499,5.0000024 C 14.815077,5.0000028 4.0000004,15.8294 4,28.976695 c 4e-7,13.147298 10.815077,23.976696 23.94499,23.976696 2.502786,5.16e-4 4.958502,-0.427792 7.315226,-1.186348 l 5.795278,5.799052 c 2.096336,2.18625 5.432252,3.575278 8.425956,3.422452 2.993702,-0.15284 5.4501,-1.4612 7.24897,-3.262452 1.798872,-1.801254 3.105518,-4.260902 3.258142,-7.25857 0.15262,-2.997668 -1.23457,-6.338 -3.41793,-8.437112 l 0.1169,0.11318 -5.943376,-5.95515 c 0.73442,-2.320722 1.142794,-4.73934 1.145812,-7.20003 v -0.0116 c 0,-13.147295 -10.815076,-23.976692 -23.944988,-23.9766924 z"/>
 <path style="fill:#d74f44" d="M 27.94499,4.0000008 C 14.815077,4.0000012 4.0000004,14.829398 4,27.976694 c 4e-7,13.147298 10.815077,23.976696 23.94499,23.976696 2.502786,5.16e-4 4.958502,-0.427792 7.315226,-1.186348 l 5.795278,5.799052 c 2.096336,2.18625 5.432252,3.575278 8.425956,3.422452 2.993702,-0.15284 5.4501,-1.4612 7.24897,-3.262452 1.798872,-1.801254 3.105518,-4.260902 3.258142,-7.25857 0.15262,-2.997668 -1.23457,-6.338 -3.41793,-8.437112 l 0.1169,0.11318 -5.943376,-5.95515 c 0.73442,-2.320722 1.142794,-4.73934 1.145812,-7.20003 v -0.0116 c 0,-13.147296 -10.815076,-23.9766926 -23.944988,-23.976693 z"/>
 <path style="opacity:0.2" d="m 34.683832,39.851771 12.225892,12.225892 c 2.827528,2.944906 7.187094,-1.41466 4.242188,-4.242188 L 38.740262,35.423825 C 34,37.000001 36,37.000001 34.683832,39.851771 Z"/>
 <path style="fill:#565656" d="m 34.683832,38.85177 12.225892,12.225892 c 2.827528,2.944906 7.187094,-1.41466 4.242188,-4.242188 L 38.740262,34.423824 C 34,36 36,36 34.683832,38.85177 Z"/>
 <path style="opacity:0.2" d="m 28,13.000002 a 16,16 0 0 0 -16,15.999999 16,16 0 0 0 16,16 16,16 0 0 0 16,-16 16,16 0 0 0 -16,-15.999999 z m 0,5.999999 a 9.9999992,9.9999992 0 0 1 10,10 9.9999992,9.9999992 0 0 1 -10,10 9.9999992,9.9999992 0 0 1 -10,-10 9.9999992,9.9999992 0 0 1 10,-10 z"/>
 <path style="fill:#ffffff" d="M 28,12 A 16,16 0 0 0 12,28 16,16 0 0 0 28,44 16,16 0 0 0 44,28 16,16 0 0 0 28,12 Z m 0,6 A 9.9999992,9.9999992 0 0 1 38,28 9.9999992,9.9999992 0 0 1 28,38 9.9999992,9.9999992 0 0 1 18,28 9.9999992,9.9999992 0 0 1 28,18 Z"/>
 <path style="opacity:0.1;fill:#ffffff" d="M 27.945312 4 C 14.815401 4.0000004 4.0000004 14.829266 4 27.976562 C 4 28.08916 4.0115992 28.199274 4.0175781 28.310547 C 4.3765532 15.466574 15.038556 5.0000004 27.945312 5 C 40.867127 5.0000004 51.5397 15.49104 51.875 28.355469 C 51.880065 28.233069 51.890469 28.111315 51.890625 27.988281 L 51.890625 27.976562 C 51.890619 14.829348 41.075225 4.0000004 27.945312 4 z M 51.179688 35.625 C 51.049568 36.149734 50.909286 36.67182 50.746094 37.1875 L 50.962891 37.404297 C 51.034439 37.144323 51.114779 36.886758 51.179688 36.625 L 56.6875 42.144531 L 56.570312 42.03125 C 58.539366 43.924325 59.848049 46.825772 59.976562 49.576172 C 59.979605 49.540065 59.986416 49.505455 59.988281 49.46875 C 60.140901 46.471082 58.753672 43.130362 56.570312 41.03125 L 56.6875 41.144531 L 51.179688 35.625 z"/>
</svg>
